assets/efishery/genset.svg

<svg width="24" height="25" viewBox="0 0 24 25" fill="none" xmlns="http://www.w3.org/2000/svg">
<path d="M16.7629 6.59082C16.9381 6.21533 16.7759 5.76904 16.4005 5.59399C16.0251 5.4187 15.5789 5.58105 15.4037 5.95654L14.0703 8.81348C14.0222 8.9165 13.999 9.0271 14 9.13745C14.0013 9.27588 14.0408 9.41333 14.1174 9.53369C14.2551 9.74976 14.4937 9.88086 14.75 9.88086H15.4L14.7799 10.8774C14.561 11.229 14.6687 11.6917 15.0204 11.9104C15.3722 12.1292 15.8346 12.0215 16.0535 11.6699L17.3868 9.5271C17.5306 9.29565 17.5378 9.00464 17.4056 8.7666C17.2733 8.52832 17.0223 8.38086 16.75 8.38086H15.9276L16.7629 6.59082Z" fill="#1D1D1D"/>
<path fill-rule="evenodd" clip-rule="evenodd" d="M4.75 6.52344C4.33582 6.52344 4 6.85913 4 7.27344V11.2734C4 11.6877 4.33582 12.0234 4.75 12.0234H9.75C10.1642 12.0234 10.5 11.6877 10.5 11.2734V7.27344C10.5 6.85913 10.1642 6.52344 9.75 6.52344H4.75ZM5.5 10.5234V8.02344H9V10.5234H5.5Z" fill="#1D1D1D"/>
<path d="M3.75 13.2734C3.75 12.9973 3.97388 12.7734 4.25 12.7734H10.25C10.4028 12.7734 10.5397 12.842 10.6313 12.9502C10.7053 13.0374 10.75 13.1501 10.75 13.2734C10.75 13.5496 10.5261 13.7734 10.25 13.7734H4.25C3.97388 13.7734 3.75 13.5496 3.75 13.2734Z" fill="#1D1D1D"/>
<path fill-rule="evenodd" clip-rule="evenodd" d="M3.75 3.27344C3.75 2.72119 4.19775 2.27344 4.75 2.27344C5.30225 2.27344 5.75 2.72119 5.75 3.27344C5.75 3.35986 5.73914 3.4436 5.71851 3.52344H17.7815C17.7609 3.4436 17.75 3.35986 17.75 3.27344C17.75 2.72119 18.1978 2.27344 18.75 2.27344C19.3022 2.27344 19.75 2.72119 19.75 3.27344C19.75 3.35986 19.7391 3.4436 19.7185 3.52344H21.75C22.1642 3.52344 22.5 3.85913 22.5 4.27344V16.2734C22.5 16.6877 22.1642 17.0234 21.75 17.0234H19.75V17.5234H21.75C22.1642 17.5234 22.5 17.8591 22.5 18.2734V22.2734C22.5 22.6877 22.1642 23.0234 21.75 23.0234H1.75C1.33582 23.0234 1 22.6877 1 22.2734V18.2734C1 18.1003 1.05859 17.9409 1.1571 17.814C1.21216 17.7432 1.27966 17.6824 1.35632 17.635C1.4707 17.5642 1.60559 17.5234 1.75 17.5234H3.75V17.0234H1.75C1.52393 17.0234 1.32117 16.9233 1.18359 16.7651C1.16187 16.74 1.14172 16.7134 1.12341 16.6858C1.11023 16.6658 1.0979 16.645 1.08655 16.6235C1.05762 16.5688 1.03528 16.5103 1.02051 16.4487L1.01172 16.4065C1.00891 16.3909 1.00659 16.375 1.00476 16.3591C1.00159 16.3308 1 16.3022 1 16.2734V4.27344C1 3.85913 1.33582 3.52344 1.75 3.52344H3.78149C3.77625 3.50317 3.77161 3.48267 3.76758 3.46191C3.76245 3.43506 3.75842 3.40771 3.75549 3.37988C3.75183 3.34497 3.75 3.30933 3.75 3.27344ZM17.75 17.5234V17.0234H5.75V17.5234H17.75ZM13 5.02344H18.5V12.5234H13V5.02344ZM11.5 13.2734V5.02344H2.5V15.5234H21V5.02344H20V13.2734C20 13.6877 19.6642 14.0234 19.25 14.0234H12.25C12.0588 14.0234 11.8844 13.9519 11.7518 13.8342C11.7245 13.8098 11.699 13.7837 11.6754 13.7556C11.635 13.7075 11.6005 13.6543 11.5731 13.5969C11.5262 13.499 11.5 13.3894 11.5 13.2734ZM2.5 19.0234V21.5234H21V19.0234H2.5Z" fill="#1D1D1D"/>
</svg>

<svg viewBox="0 0 24 25" xmlns="http://www.w3.org/2000/svg">
  <path d="M16.763 6.59a.75.75 0 1 0-1.36-.633L14.07 8.813a.749.749 0 0 0 .68 1.068h.65l-.62.996a.75.75 0 1 0 1.274.793l1.333-2.143a.75.75 0 0 0-.637-1.146h-.822l.835-1.79z"/>
  <path fill-rule="evenodd" clip-rule="evenodd" d="M4.75 6.523a.75.75 0 0 0-.75.75v4c0 .415.336.75.75.75h5a.75.75 0 0 0 .75-.75v-4a.75.75 0 0 0-.75-.75h-5zm.75 4v-2.5H9v2.5H5.5z"/>
  <path d="M3.75 13.273a.5.5 0 0 1 .5-.5h6a.498.498 0 0 1 .5.5.5.5 0 0 1-.5.5h-6a.5.5 0 0 1-.5-.5z"/>
  <path fill-rule="evenodd" clip-rule="evenodd" d="M3.75 3.273a1 1 0 1 1 1.969.25h12.063a1 1 0 1 1 1.936 0h2.032a.75.75 0 0 1 .75.75v12a.75.75 0 0 1-.75.75h-2v.5h2a.75.75 0 0 1 .75.75v4a.75.75 0 0 1-.75.75h-20a.75.75 0 0 1-.75-.75v-4a.747.747 0 0 1 .75-.75h2v-.5h-2a.749.749 0 0 1-.73-.574l-.008-.043A.755.755 0 0 1 1 16.274v-12a.75.75 0 0 1 .75-.75h2.031a1.03 1.03 0 0 1-.031-.25zm14 14.25v-.5h-12v.5h12zM13 5.023h5.5v7.5H13v-7.5zm-1.5 8.25v-8.25h-9v10.5H21v-10.5h-1v8.25a.75.75 0 0 1-.75.75h-7a.748.748 0 0 1-.75-.75zm-9 5.75v2.5H21v-2.5H2.5z"/>
</svg>
